X: 37541
T: Slopes Of Sliabh Luachra, The
R: jig
M: 6/8
K: Dmajor
A|:BAF ~E3|EFF DFA|BAF EFA|BBA Bcd|
BAF EFE|EFF DFA|def edc|1 B2A Bcd:|2 B2A BAF||
|:d2e fed||cBc ecA|dcd fed|ffe fga|
dcd fed|c2d ecA|dcB cBA|ABB BAF:|

